X: 82
T:Walts Dinefwr
T:The Dinefwr Waltz
M:3/4
L:1/8
Q:200
S:Cadw Twmpath Collection
R:Waltz
A:Wales
Z:brian_martin12345@yahoo.com
K:G
d2|g2b2d2|a2g2d2|e2d2G2|B4d2|e2d2F2|A4d2|e2d2G2|B4d2|
g2b2d2|a2g2d2|e2d2G2|B4d2|e6|c2B2A2|f2e2f2|g4:||
K:D
z2|d2dddd|f2ffff|a2aaaa|d'4a2|ba gf eA|_B4A>>A|ag fe dA|^G4A2|
d2dddd|f2ffff|a2aaaa|d'4a>>a|ba gf eA|_B4A2|A2fefe|d4:||
K:G
c2|B4d2|g4b2|d'2d'd'd'd'|d'3c'b2|c'2c'c'c'c'|c'3ba2|b2bbbb|b3gd2|
B4d2|g4b2|d'2d'd'd'd'|d'3c'b2|c'2c'c'c'c'|c'3ba2|g2gagf|g4:||
